symbols/web/data_saver_on/materialsymbolsoutlined/data_saver_on_wght500gradN25_24px.svg

<svg xmlns="http://www.w3.org/2000/svg" height="24" width="24"><path d="M10.975 15.975v-2.95h-2.95V10.95h2.95V8h2.075v2.95H16v2.075h-2.95v2.95Zm10.25.1L18.55 14.55q.225-.6.35-1.225.125-.625.125-1.325 0-2.7-1.725-4.675-1.725-1.975-4.3-2.3v-3.05q3.85.375 6.463 3.225 2.612 2.85 2.612 6.8 0 1.075-.212 2.137-.213 1.063-.638 1.938Zm-9.225 6q-2.075 0-3.912-.8-1.838-.8-3.2-2.162-1.363-1.363-2.163-3.201-.8-1.837-.8-3.912 0-3.95 2.613-6.8Q7.15 2.35 11 1.975v3.05q-2.6.35-4.312 2.325Q4.975 9.325 4.975 12q0 2.9 2.05 4.962 2.05 2.063 4.975 2.063 1.7 0 3.113-.7 1.412-.7 2.387-1.925l2.675 1.525q-1.375 1.9-3.512 3.025-2.138 1.125-4.663 1.125Z"/></svg>

<svg xmlns="http://www.w3.org/2000/svg" height="24" width="24"><path d="M10.975 15.975V13.025H8.025V10.95H10.975V8H13.05V10.95H16V13.025H13.05V15.975ZM21.225 16.075 18.55 14.55Q18.775 13.95 18.9 13.325Q19.025 12.7 19.025 12Q19.025 9.3 17.3 7.325Q15.575 5.35 13 5.025V1.975Q16.85 2.35 19.463 5.2Q22.075 8.05 22.075 12Q22.075 13.075 21.863 14.137Q21.65 15.2 21.225 16.075ZM12 22.075Q9.925 22.075 8.088 21.275Q6.25 20.475 4.888 19.113Q3.525 17.75 2.725 15.912Q1.925 14.075 1.925 12Q1.925 8.05 4.538 5.2Q7.15 2.35 11 1.975V5.025Q8.4 5.375 6.688 7.35Q4.975 9.325 4.975 12Q4.975 14.9 7.025 16.962Q9.075 19.025 12 19.025Q13.7 19.025 15.113 18.325Q16.525 17.625 17.5 16.4L20.175 17.925Q18.8 19.825 16.663 20.95Q14.525 22.075 12 22.075Z"/></svg>
